img/security3.svg

<svg width="94" height="94" viewBox="0 0 94 94" fill="none" xmlns="http://www.w3.org/2000/svg">
<g filter="url(#filter0_d)">
<path d="M88.6695 22.8942C86.4033 22.8942 84.5569 21.0465 84.5569 18.7789C84.5569 18.0735 83.9861 17.5192 83.2979 17.5192C82.6097 17.5192 82.0389 18.0903 82.0389 18.7789C82.0389 21.0465 80.1925 22.8942 77.9263 22.8942C77.2213 22.8942 76.6674 23.4653 76.6674 24.1539C76.6674 24.8426 77.2381 25.4137 77.9263 25.4137C80.1925 25.4137 82.0389 27.2614 82.0389 29.5289C82.0389 30.2344 82.6097 30.7887 83.2979 30.7887C83.9861 30.7887 84.5569 30.2176 84.5569 29.5289C84.5569 27.2614 86.4033 25.4137 88.6695 25.4137C89.3745 25.4137 89.9284 24.8426 89.9284 24.1539C89.9284 23.4653 89.3577 22.8942 88.6695 22.8942ZM83.2811 25.6489C82.8615 25.0778 82.3579 24.5739 81.7871 24.1539C82.3579 23.734 82.8615 23.2301 83.2811 22.659C83.7008 23.2301 84.2044 23.734 84.7751 24.1539C84.2044 24.5739 83.7008 25.0778 83.2811 25.6489Z" fill="#ED1C24"/>
<path d="M9.37158 29.5289C9.37158 30.2344 9.94231 30.7887 10.6305 30.7887C11.3188 30.7887 11.8895 30.2176 11.8895 29.5289C11.8895 27.2614 13.736 25.4137 16.0021 25.4137C16.7071 25.4137 17.2611 24.8426 17.2611 24.1539C17.2611 23.4653 16.6904 22.8942 16.0021 22.8942C13.736 22.8942 11.8895 21.0465 11.8895 18.7789C11.8895 18.0735 11.3188 17.5192 10.6305 17.5192C9.94231 17.5192 9.37158 18.0903 9.37158 18.7789C9.37158 21.0465 7.5251 22.8942 5.25896 22.8942C4.55394 22.8942 4 23.4653 4 24.1539C4 24.8426 4.57073 25.4137 5.25896 25.4137C7.5251 25.4137 9.37158 27.2614 9.37158 29.5289ZM10.6305 22.659C11.0502 23.2301 11.5538 23.734 12.1245 24.1539C11.5538 24.5739 11.0502 25.0778 10.6305 25.6489C10.2109 25.0778 9.7073 24.5739 9.13657 24.1539C9.7073 23.734 10.2109 23.2301 10.6305 22.659Z" fill="#ED1C24"/>
<path d="M40.2246 9.25508C43.2461 9.25508 45.6969 11.7074 45.6969 14.7309C45.6969 15.4363 46.2676 15.9906 46.9559 15.9906C47.6609 15.9906 48.2148 15.4195 48.2148 14.7309C48.2148 11.7074 50.6656 9.25508 53.6871 9.25508C54.3921 9.25508 54.9461 8.68398 54.9461 7.99531C54.9461 7.30664 54.3754 6.73555 53.6871 6.73555C50.6656 6.73555 48.2148 4.2832 48.2148 1.25977C48.2148 0.554297 47.6441 0 46.9559 0C46.2508 0 45.6969 0.571094 45.6969 1.25977C45.6969 4.2832 43.2461 6.73555 40.2246 6.73555C39.5196 6.73555 38.9656 7.30664 38.9656 7.99531C38.9656 8.68398 39.5364 9.25508 40.2246 9.25508ZM46.9559 5.57656C47.577 6.55078 48.3995 7.37383 49.3731 7.99531C48.3995 8.6168 47.577 9.43984 46.9559 10.4141C46.3348 9.43984 45.5123 8.6168 44.5387 7.99531C45.5123 7.37383 46.3348 6.53398 46.9559 5.57656Z" fill="#ED1C24"/>
<path d="M73.0583 43.7223C73.2933 43.3863 73.3605 42.9664 73.2262 42.5801L68.3246 28.6723C67.9553 27.6309 66.965 26.9254 65.8739 26.9254H27.7189C26.611 26.9254 25.6206 27.6309 25.2681 28.6723L20.3665 42.5801C20.0812 43.3863 20.7022 44.2598 21.5583 44.2598H72.0344C72.4372 44.2598 72.8233 44.0582 73.0583 43.7223ZM23.3209 41.7403L27.6349 29.5121C27.6517 29.4785 27.6853 29.4617 27.7189 29.4617H65.8571C65.8906 29.4617 65.9242 29.4785 65.941 29.5121L70.255 41.7403H23.3209Z" fill="#ED1C24"/>
<path d="M63.5573 68.1449C64.7156 70.8828 68.845 71.6723 72.9744 69.9422C77.1038 68.2121 79.4371 64.7016 78.2788 61.9637C77.1206 59.2258 72.9912 58.4363 68.8618 60.1664C64.7324 61.8965 62.3991 65.4071 63.5573 68.1449ZM75.9623 62.9211C76.4659 64.1305 74.888 66.3813 72.0008 67.6074C69.1136 68.8336 66.3942 68.3801 65.8906 67.1707C65.387 65.9613 66.9649 63.7106 69.8522 62.4844C72.7394 61.275 75.4587 61.7117 75.9623 62.9211Z" fill="#ED1C24"/>
<path d="M24.5295 60.1664C20.4001 58.4363 16.2707 59.209 15.1125 61.9637C13.9542 64.7016 16.2875 68.2121 20.4169 69.9422C24.5463 71.6723 28.6757 70.8996 29.8339 68.1449C30.9922 65.4071 28.6589 61.8965 24.5295 60.1664ZM23.5559 62.4844C26.4431 63.6938 28.021 65.9613 27.5174 67.1707C27.0139 68.3801 24.2945 68.8168 21.4073 67.6074C18.5201 66.3981 16.9421 64.1305 17.4457 62.9211C17.9493 61.7117 20.6687 61.275 23.5559 62.4844Z" fill="#ED1C24"/>
<path d="M18.5369 57.731H26.611C27.316 57.731 27.87 57.1599 27.87 56.4712C27.87 55.7825 27.2992 55.2114 26.611 55.2114H18.5369C17.8318 55.2114 17.2779 55.7825 17.2779 56.4712C17.2779 57.1599 17.8318 57.731 18.5369 57.731Z" fill="#ED1C24"/>
<path d="M65.706 56.4711C65.706 57.1765 66.2767 57.7308 66.965 57.7308H75.0391C75.7441 57.7308 76.2981 57.1597 76.2981 56.4711C76.2981 55.7824 75.7273 55.2113 75.0391 55.2113H66.965C66.2767 55.1945 65.706 55.7656 65.706 56.4711Z" fill="#ED1C24"/>
<path d="M41.1143 25.4137C41.8096 25.4137 42.3732 24.8497 42.3732 24.1539C42.3732 23.4582 41.8096 22.8942 41.1143 22.8942C40.4189 22.8942 39.8553 23.4582 39.8553 24.1539C39.8553 24.8497 40.4189 25.4137 41.1143 25.4137Z" fill="#ED1C24"/>
<path d="M87.1587 40.3965H80.4274C79.8567 40.3965 79.3363 40.7828 79.202 41.3539L78.3124 44.8981L72.1183 27.3285C71.1783 24.6746 68.6603 22.8942 65.857 22.8942H47.6608C46.9558 22.8942 46.4018 23.4653 46.4018 24.1539C46.4018 24.8594 46.9726 25.4137 47.6608 25.4137H65.857C67.6028 25.4137 69.1639 26.5223 69.7346 28.1684L75.9455 45.7883H68.3582C67.6699 45.7883 67.0656 46.3258 67.0489 47.0145C67.0321 47.7367 67.6028 48.3078 68.3078 48.3078H77.0702L82.425 55.7992C82.9286 56.5047 83.1972 57.3446 83.1972 58.2012V72.7137H60.1665V63.2067C60.1665 59.5281 57.1954 56.5551 53.5192 56.5551H40.0567C36.3805 56.5551 33.4093 59.5281 33.4093 63.2067V72.7137H10.3787V58.2012C10.3787 57.3446 10.6473 56.5047 11.1509 55.7992L16.5057 48.3078H62.9027C63.5909 48.3078 64.1952 47.7703 64.212 47.0817C64.2288 46.3594 63.658 45.7883 62.953 45.7883H17.6303L23.8412 28.1684C24.4287 26.5223 25.9899 25.4137 27.7188 25.4137H34.5508C35.2558 25.4137 35.8098 24.8426 35.8098 24.1539C35.8098 23.4485 35.239 22.8942 34.5508 22.8942H27.7188C24.9155 22.8942 22.3976 24.6746 21.4576 27.3285L15.2635 44.8981L14.3738 41.3539C14.2395 40.7996 13.7359 40.3965 13.1484 40.3965H6.41717C5.71215 40.3965 5.1582 40.9676 5.1582 41.6563V47.0313C5.1582 47.7367 5.72893 48.291 6.41717 48.291H13.3834L9.08617 54.3211C8.28043 55.4465 7.84399 56.8071 7.84399 58.1844V73.9567C7.84399 76.1403 8.90152 78.0887 10.5298 79.2981C10.5298 79.3149 10.5298 79.3317 10.5298 79.3485V83.3797C10.5298 84.8242 11.7048 85.9832 13.1316 85.9832H21.2058C22.6494 85.9832 23.8076 84.8074 23.8076 83.3797V80.6082H69.7179V83.3797C69.7179 84.8242 70.8929 85.9832 72.3197 85.9832H80.3939C81.8375 85.9832 82.9957 84.8074 82.9957 83.3797V79.3485C82.9957 79.3317 82.9957 79.3149 82.9957 79.2981C84.624 78.0887 85.6815 76.1403 85.6815 73.9567V58.1844C85.6815 56.7903 85.2619 55.4465 84.4393 54.3211L80.1924 48.3078H87.1587C87.8637 48.3078 88.4177 47.7367 88.4177 47.0481V41.6563C88.4177 40.9508 87.8469 40.3965 87.1587 40.3965ZM7.67613 45.7715V42.916H12.158L12.8798 45.7715H7.67613ZM40.0567 59.0746H53.5192C55.3489 59.0746 56.91 60.284 57.4472 61.9301H36.1455C36.6659 60.2672 38.227 59.0746 40.0567 59.0746ZM35.9441 64.4496H57.6486V67.3051H35.9441V64.4496ZM35.9441 69.8414H57.6486V72.6969H35.9441V69.8414ZM21.3065 83.3965C21.3065 83.4469 21.2729 83.4805 21.2226 83.4805H13.1484C13.0981 83.4805 13.0645 83.4469 13.0645 83.3965V80.625H14.4913H21.3065V83.3965ZM80.5114 83.3965C80.5114 83.4469 80.4778 83.4805 80.4274 83.4805H72.3533C72.3029 83.4805 72.2693 83.4469 72.2693 83.3965V80.625H79.0845H80.5114V83.3965ZM79.0845 78.0887H14.4913C12.6616 78.0887 11.1005 76.8793 10.5634 75.2332H82.9957C82.4753 76.8793 80.9142 78.0887 79.0845 78.0887ZM85.8997 45.7715H80.696L81.4178 42.916H85.8997V45.7715Z" fill="#ED1C24"/>
</g>
<defs>
<filter id="filter0_d" x="0" y="0" width="93.9284" height="93.9832" filterUnits="userSpaceOnUse" color-interpolation-filters="sRGB">
<feFlood flood-opacity="0" result="BackgroundImageFix"/>
<feColorMatrix in="SourceAlpha" type="matrix" values="0 0 0 0 0 0 0 0 0 0 0 0 0 0 0 0 0 0 127 0"/>
<feOffset dy="4"/>
<feGaussianBlur stdDeviation="2"/>
<feColorMatrix type="matrix" values="0 0 0 0 0.929412 0 0 0 0 0.109804 0 0 0 0 0.141176 0 0 0 0.2 0"/>
<feBlend mode="normal" in2="BackgroundImageFix" result="effect1_dropShadow"/>
<feBlend mode="normal" in="SourceGraphic" in2="effect1_dropShadow" result="shape"/>
</filter>
</defs>
</svg>

<svg width="94" height="94" viewBox="0 0 94 94" fill="none" xmlns="http://www.w3.org/2000/svg"><g filter="url(#filter0_d)" fill="#ED1C24"><path d="M88.67 22.894a4.12 4.12 0 01-4.113-4.115c0-.706-.57-1.26-1.26-1.26-.687 0-1.258.571-1.258 1.26a4.12 4.12 0 01-4.113 4.115c-.705 0-1.259.571-1.259 1.26 0 .689.571 1.26 1.26 1.26a4.12 4.12 0 014.112 4.115c0 .705.57 1.26 1.259 1.26.688 0 1.259-.571 1.259-1.26a4.12 4.12 0 014.112-4.115c.706 0 1.26-.571 1.26-1.26 0-.689-.571-1.26-1.26-1.26zm-5.39 2.756a7.006 7.006 0 00-1.494-1.495 7.003 7.003 0 001.494-1.495c.42.571.923 1.075 1.494 1.495a7.01 7.01 0 00-1.494 1.495zM9.372 29.529c0 .705.57 1.26 1.258 1.26.689 0 1.26-.571 1.26-1.26a4.12 4.12 0 014.112-4.115c.705 0 1.26-.571 1.26-1.26a1.27 1.27 0 00-1.26-1.26 4.12 4.12 0 01-4.112-4.115c0-.706-.571-1.26-1.26-1.26-.688 0-1.258.571-1.258 1.26a4.12 4.12 0 01-4.113 4.115c-.705 0-1.259.571-1.259 1.26 0 .689.57 1.26 1.259 1.26a4.12 4.12 0 014.113 4.115zm1.258-6.87c.42.571.924 1.075 1.494 1.495a7.01 7.01 0 00-1.494 1.495 7.007 7.007 0 00-1.493-1.495 7.005 7.005 0 001.493-1.495zM40.225 9.255a5.475 5.475 0 015.472 5.476 1.258 1.258 0 102.518 0 5.475 5.475 0 015.472-5.476c.705 0 1.26-.571 1.26-1.26a1.27 1.27 0 00-1.26-1.26 5.475 5.475 0 01-5.472-5.475c0-.706-.57-1.26-1.26-1.26-.704 0-1.258.571-1.258 1.26a5.475 5.475 0 01-5.472 5.476c-.705 0-1.26.57-1.26 1.26 0 .688.571 1.26 1.26 1.26zm6.73-3.678a7.91 7.91 0 002.418 2.418 7.91 7.91 0 00-2.417 2.42 7.91 7.91 0 00-2.417-2.42 8.098 8.098 0 002.417-2.418zm26.103 38.145c.235-.336.302-.756.168-1.142l-4.901-13.908a2.62 2.62 0 00-2.451-1.747H27.719a2.588 2.588 0 00-2.45 1.747L20.366 42.58c-.286.806.335 1.68 1.191 1.68h50.476c.403 0 .79-.202 1.024-.538zM23.321 41.74l4.314-12.228a.092.092 0 01.084-.05h38.138c.034 0 .067.017.084.05l4.314 12.228H23.321zm40.236 26.405c1.159 2.738 5.288 3.527 9.417 1.797 4.13-1.73 6.463-5.24 5.305-7.978-1.158-2.738-5.288-3.528-9.417-1.798-4.13 1.73-6.463 5.241-5.305 7.979zm12.405-5.224c.504 1.21-1.074 3.46-3.961 4.686-2.887 1.227-5.607.773-6.11-.436-.504-1.21 1.074-3.46 3.961-4.687 2.887-1.209 5.607-.772 6.11.437zM24.53 60.166c-4.13-1.73-8.26-.957-9.418 1.798-1.158 2.738 1.176 6.248 5.305 7.978 4.13 1.73 8.259.958 9.417-1.797 1.158-2.738-1.175-6.248-5.305-7.979zm-.974 2.318c2.887 1.21 4.465 3.477 3.961 4.687-.503 1.21-3.223 1.646-6.11.436-2.887-1.209-4.465-3.477-3.961-4.686.503-1.21 3.223-1.646 6.11-.437zm-5.019-4.753h8.074c.705 0 1.259-.571 1.259-1.26 0-.688-.57-1.26-1.259-1.26h-8.074a1.26 1.26 0 100 2.52zm47.169-1.26c0 .706.57 1.26 1.259 1.26h8.074c.705 0 1.26-.571 1.26-1.26a1.27 1.27 0 00-1.26-1.26h-8.074c-.688-.017-1.259.555-1.259 1.26zM41.114 25.414a1.26 1.26 0 100-2.519 1.26 1.26 0 000 2.519z"/><path d="M87.159 40.397h-6.732c-.57 0-1.09.386-1.225.957l-.89 3.544-6.194-17.57a6.66 6.66 0 00-6.261-4.434H47.661a1.26 1.26 0 100 2.52h18.196a4.108 4.108 0 013.878 2.754l6.21 17.62h-7.587c-.688 0-1.292.538-1.31 1.227a1.255 1.255 0 001.26 1.293h8.762l5.355 7.491c.504.706.772 1.546.772 2.402v14.513h-23.03v-9.507a6.643 6.643 0 00-6.648-6.652H40.057a6.643 6.643 0 00-6.648 6.652v9.507H10.38V58.2c0-.856.268-1.696.772-2.402l5.355-7.491h46.397c.688 0 1.292-.538 1.309-1.226a1.255 1.255 0 00-1.259-1.294H17.63l6.211-17.62c.588-1.646 2.149-2.754 3.878-2.754h6.832c.705 0 1.259-.571 1.259-1.26 0-.706-.571-1.26-1.26-1.26h-6.83a6.66 6.66 0 00-6.261 4.434l-6.194 17.57-.89-3.544a1.26 1.26 0 00-1.226-.957h-6.73c-.706 0-1.26.57-1.26 1.26v5.374c0 .706.57 1.26 1.26 1.26h6.965l-4.297 6.03a6.66 6.66 0 00-1.242 3.863v15.773a6.65 6.65 0 002.686 5.341v4.082a2.605 2.605 0 002.602 2.603h8.074a2.605 2.605 0 002.602-2.603v-2.772h45.91v2.772a2.605 2.605 0 002.602 2.603h8.074a2.605 2.605 0 002.602-2.603v-4.081a6.65 6.65 0 002.686-5.342V58.184c0-1.394-.42-2.737-1.243-3.863l-4.247-6.013h6.967c.705 0 1.259-.571 1.259-1.26v-5.392c0-.705-.571-1.26-1.26-1.26zM7.676 45.772v-2.856h4.482l.722 2.856H7.676zm32.38 13.303H53.52a4.15 4.15 0 013.928 2.855H36.145a4.092 4.092 0 013.912-2.855zm-4.112 5.375H57.65v2.855H35.944V64.45zm0 5.391H57.65v2.856H35.944V69.84zM21.306 83.397c0 .05-.033.084-.083.084h-8.075c-.05 0-.083-.034-.083-.084v-2.772h8.241v2.772zm59.205 0c0 .05-.033.084-.084.084h-8.074a.08.08 0 01-.084-.084v-2.772h8.242v2.772zm-1.426-5.308H14.49a4.15 4.15 0 01-3.928-2.856h72.433a4.113 4.113 0 01-3.911 2.856zM85.9 45.772h-5.204l.722-2.856H85.9v2.856z"/></g><defs><filter id="filter0_d" x="0" y="0" width="93.928" height="93.983" filterUnits="userSpaceOnUse" color-interpolation-filters="sRGB"><feFlood flood-opacity="0" result="BackgroundImageFix"/><feColorMatrix in="SourceAlpha" values="0 0 0 0 0 0 0 0 0 0 0 0 0 0 0 0 0 0 127 0"/><feOffset dy="4"/><feGaussianBlur stdDeviation="2"/><feColorMatrix values="0 0 0 0 0.929412 0 0 0 0 0.109804 0 0 0 0 0.141176 0 0 0 0.2 0"/><feBlend in2="BackgroundImageFix" result="effect1_dropShadow"/><feBlend in="SourceGraphic" in2="effect1_dropShadow" result="shape"/></filter></defs></svg>
